X:1
T: The 42nd Highlander's Farewell
C:
R:Reel
I:speed 232
Q:232
K:Bm
M:4/4
L:1/8
fe|d2B2 B3c|d2B2 B3c|d2cB edcB|A4-A2Bc|d2B2 B3c|d2B2 B3c|d3e f2d2|B4 B2c2|
d3e f2e2|f3e d2e2|f2ed edcB|A4 A2c2|B3c d2e2|f3e d2c2|a3f e2dc|B6fe|
d2B2 B3c|d2B2 B3c|d2cB edcB|A4-A2Bc|d2B2 B3c|d2B2 B3c|d3e f2d2|B4 B2c2|
d3e f2e2|f3e d2e2|f2ed edcB|A4 A2c2|B3c d2e2|f2d2 e2f2|d3B c2A2|B4 B2c2|
d2B2 B3c|d2B2 B2f2|d2B2 edcB|A4 A2Bc|d2B2 B3c|d2B2 B2fe|a3f a2c2|B4 B3c|
d3e f2a2|f3e d2e2|f3e d2B2|A4 A2dc|B3c d2e2|f3e d2c2|a3f e2dc|B6||
